packages/icons/svgs/duotone/Source=heart.svg

<svg width="24" height="24" viewBox="0 0 24 24" fill="none" xmlns="http://www.w3.org/2000/svg">
<g clip-path="url(#clip0_1727_890)">
<path fill-rule="evenodd" clip-rule="evenodd" d="M2.05188 3.04989C4.78541 0.316367 9.21757 0.316367 11.9511 3.04989C11.9678 3.06663 11.9845 3.08343 12.001 3.1003C12.0175 3.08344 12.0341 3.06663 12.0509 3.04989C14.7844 0.316367 19.2166 0.316367 21.9501 3.04989C24.6836 5.78342 24.6836 10.2156 21.9501 12.9491L12.7071 22.1921C12.5195 22.3797 12.2652 22.485 11.9999 22.485C11.7347 22.485 11.4803 22.3796 11.2928 22.192L2.05188 12.9491C2.05186 12.9491 2.05183 12.9491 2.05181 12.949C-0.681642 10.2155 -0.681616 5.78339 2.05188 3.04989ZM10.5369 4.46411C8.58441 2.51163 5.41857 2.51163 3.4661 4.46411C1.51362 6.41658 1.51362 9.58241 3.4661 11.5349L3.46617 11.535L12.0001 20.0707L20.5359 11.5349C22.4884 9.58241 22.4884 6.41658 20.5359 4.46411C18.5834 2.51163 15.4176 2.51163 13.4651 4.46411C13.2253 4.70389 13.0161 4.96281 12.8342 5.23693C12.6489 5.51615 12.3361 5.684 12.001 5.684C11.6659 5.684 11.3531 5.51615 11.1678 5.23693C10.9859 4.96291 10.7758 4.70298 10.5369 4.46411Z" fill="black" style="fill:black;fill-opacity:1;"/>
</g>
<defs>
<clipPath id="clip0_1727_890">
<rect width="24" height="24" fill="white" style="fill:white;fill-opacity:1;"/>
</clipPath>
</defs>
</svg>

<svg xmlns="http://www.w3.org/2000/svg" width="24" height="24" viewBox="0 0 24 24"><g clip-path="url(#a)"><path fill-rule="evenodd" d="M2.052 3.05A7 7 0 0 1 12 3.1l.05-.05a7 7 0 0 1 9.9 9.9l-9.244 9.242a1 1 0 0 1-1.414 0l-9.241-9.243a7 7 0 0 1 0-9.9m8.485 1.414a5 5 0 0 0-7.07 7.07v.001L12 20.071l8.536-8.536a5 5 0 1 0-7.702-6.298 1 1 0 0 1-1.666 0 5 5 0 0 0-.631-.773" clip-rule="evenodd"/></g><defs><clipPath id="a"><path fill="#fff" d="M0 0h24v24H0z"/></clipPath></defs></svg>
